X:104
T:Baille de Panderu (CT 473)
R:Panderu
C:Tradicional
S:Msica Tradicional Asturiana, (C) Tello & Tito. Asturies, 2001.
S:http://pagina.de/MusTradAst <telloytito@asturies.org>
N:Cancin de baile de pandero, transcrita en Muriellos, ayuntamiento de Quirs.
A:Asturies
O:Muriellos (Quirs)
Z:Cancioneru de Torner 473
M:6/8
L:1/8
Q:3/8=88
K:Cm
|Bcc Bcc|B2B- B3|AGA GAA|
G2G- G2z|Gcc Bcc|BBA GAG|F2F- F3-|
F3 z3|FBB cBB|A2G- G3-|G2 z4||
W:Agora que t lo baillas,
W:yo te tocar'l panderu,
W:pero si otru me lo manda,
W:mi vida del alma,
W:yo le dir que nun quiero.
W:
